svg/tntSign.svg

<?xml version="1.0" encoding="UTF-8" standalone="no"?>
<!-- Created with Inkscape (http://www.inkscape.org/) -->

<svg
   width="32"
   height="32"
   viewBox="0 0 8.4666666 8.4666668"
   version="1.1"
   id="svg5"
   inkscape:version="1.1.2 (b8e25be8, 2022-02-05)"
   sodipodi:docname="tntSign.svg"
   xmlns:inkscape="http://www.inkscape.org/namespaces/inkscape"
   xmlns:sodipodi="http://sodipodi.sourceforge.net/DTD/sodipodi-0.dtd"
   xmlns="http://www.w3.org/2000/svg"
   xmlns:svg="http://www.w3.org/2000/svg"
   xmlns:rdf="http://www.w3.org/1999/02/22-rdf-syntax-ns#"
   xmlns:cc="http://creativecommons.org/ns#">
  <sodipodi:namedview
     id="namedview7"
     pagecolor="#ffffff"
     bordercolor="#111111"
     borderopacity="1"
     inkscape:pageshadow="0"
     inkscape:pageopacity="0"
     inkscape:pagecheckerboard="1"
     inkscape:document-units="mm"
     showgrid="true"
     width="32mm"
     units="px"
     objecttolerance="10000"
     guidetolerance="10000"
     inkscape:snap-perpendicular="true"
     inkscape:snap-tangential="true"
     inkscape:zoom="34.90625"
     inkscape:cx="8.6374217"
     inkscape:cy="15.140555"
     inkscape:window-width="2560"
     inkscape:window-height="1301"
     inkscape:window-x="0"
     inkscape:window-y="25"
     inkscape:window-maximized="0"
     inkscape:current-layer="layer1">
    <inkscape:grid
       type="xygrid"
       id="grid9"
       units="px"
       empspacing="2" />
  </sodipodi:namedview>
  <defs
     id="defs2" />
  <g
     inkscape:label="Layer 1"
     inkscape:groupmode="layer"
     id="layer1">
    <g
       id="g9474"
       transform="translate(0,-0.26458332)">
      <path
         id="rect8826"
         style="fill:#000000;stroke-width:0.264583"
         d="M 1.0583333,3.175 V 3.7041666 H 1.5875 V 5.8208333 H 2.1166666 V 3.7041666 H 2.6458333 V 3.175 Z" />
      <path
         style="fill:#000000;fill-opacity:1;stroke:none;stroke-width:0.264583px;stroke-linecap:butt;stroke-linejoin:miter;stroke-opacity:1"
         d="m 3.175,3.175 0.2645833,0 1.3229167,1.5875 -1e-7,-1.5875 h 0.5291667 v 2.6458333 l -0.2645833,0 -1.3229166,-1.5875 c 6e-7,2.6407025 -10e-8,1.0583333 -10e-8,1.5875 H 3.175 Z"
         id="path9171"
         sodipodi:nodetypes="ccccccccccc" />
      <path
         id="path9389"
         style="fill:#000000;stroke-width:0.264583"
         d="M 5.8208336,3.175 V 3.7041667 H 6.3500002 V 5.8208333 H 6.8791669 V 3.7041667 H 7.4083336 V 3.175 Z" />
    </g>
  </g>
  <metadata
     id="metadata33">
    <rdf:RDF>
      <cc:Work
         rdf:about="">
        <cc:license
           rdf:resource="http://creativecommons.org/licenses/by-sa/4.0/" />
      </cc:Work>
      <cc:License
         rdf:about="http://creativecommons.org/licenses/by-sa/4.0/">
        <cc:permits
           rdf:resource="http://creativecommons.org/ns#Reproduction" />
        <cc:permits
           rdf:resource="http://creativecommons.org/ns#Distribution" />
        <cc:requires
           rdf:resource="http://creativecommons.org/ns#Notice" />
        <cc:requires
           rdf:resource="http://creativecommons.org/ns#Attribution" />
        <cc:permits
           rdf:resource="http://creativecommons.org/ns#DerivativeWorks" />
        <cc:requires
           rdf:resource="http://creativecommons.org/ns#ShareAlike" />
      </cc:License>
    </rdf:RDF>
  </metadata>
</svg>

<svg width="32" height="32" viewBox="0 0 8.467 8.467" xmlns="http://www.w3.org/2000/svg"><path style="fill:#000;stroke-width:.264583" d="M1.058 3.175v.53h.53V5.82h.529V3.704h.529v-.529Z" transform="translate(0 -.265)"/><path style="fill:#000;fill-opacity:1;stroke:none;stroke-width:.264583px;stroke-linecap:butt;stroke-linejoin:miter;stroke-opacity:1" d="M3.175 3.175h.265l1.322 1.587V3.175h.53v2.646h-.265L3.704 4.233v1.588h-.529Z" transform="translate(0 -.265)"/><path style="fill:#000;stroke-width:.264583" d="M5.82 3.175v.53h.53V5.82h.53V3.704h.528v-.529Z" transform="translate(0 -.265)"/></svg>
